svg/color/acx.svg

<svg width="300" height="57" viewBox="0 0 300 57" fill="none" xmlns="http://www.w3.org/2000/svg">
<path fill-rule="evenodd" clip-rule="evenodd" d="M50.7699 0L56.4558 5.68591L37.4544 24.6874C36.4528 22.079 34.3769 20.0031 31.7684 19.0015L50.7699 0ZM24.6874 19.0015L5.68591 0L0 5.68591L19.0015 24.6874C20.0031 22.079 22.079 20.0031 24.6874 19.0015ZM19.0015 31.7684L0 50.7699L5.68591 56.4558L24.6874 37.4544C22.079 36.4528 20.0031 34.3769 19.0015 31.7684ZM31.7684 37.4544L50.7699 56.4558L56.4558 50.7699L37.4544 31.7684C36.4528 34.3769 34.3769 36.4528 31.7684 37.4544Z" fill="#6CF9D8"/>
<path d="M108.163 46.5751C107.813 46.5751 107.586 46.4001 107.481 46.0501L105.748 40.4333C105.678 40.2933 105.591 40.2233 105.486 40.2233H91.6274C91.5225 40.2233 91.435 40.2933 91.365 40.4333L89.6327 46.0501C89.5277 46.4001 89.3002 46.5751 88.9502 46.5751H83.7008C83.4909 46.5751 83.3334 46.5226 83.2284 46.4176C83.1234 46.2776 83.1059 46.0851 83.1759 45.8402L94.5671 10.3542C94.6721 10.0042 94.8996 9.82925 95.2495 9.82925H101.811C102.161 9.82925 102.389 10.0042 102.494 10.3542L113.937 45.8402C113.972 45.9101 113.99 45.9976 113.99 46.1026C113.99 46.4176 113.797 46.5751 113.412 46.5751H108.163ZM92.9923 35.1314C92.9573 35.3413 93.0273 35.4463 93.2023 35.4463H103.859C104.069 35.4463 104.139 35.3413 104.069 35.1314L98.6616 17.5459C98.6266 17.4059 98.5742 17.3359 98.5042 17.3359C98.4342 17.3359 98.3817 17.4059 98.3467 17.5459L92.9923 35.1314Z" fill="#6CF9D8"/>
<path d="M136.555 46.995C133.93 46.995 131.621 46.4876 129.626 45.4727C127.631 44.4228 126.091 42.9705 125.006 41.1157C123.921 39.2609 123.379 37.1087 123.379 34.6589V21.6929C123.379 19.2432 123.921 17.0909 125.006 15.2361C126.091 13.3813 127.631 11.9465 129.626 10.9316C131.621 9.91674 133.93 9.4093 136.555 9.4093C139.145 9.4093 141.437 9.89925 143.432 10.8791C145.426 11.859 146.966 13.2414 148.051 15.0262C149.136 16.811 149.678 18.8757 149.678 21.2205C149.678 21.3954 149.608 21.5529 149.468 21.6929C149.363 21.7979 149.224 21.8504 149.049 21.8504L144.219 22.1129C143.799 22.1129 143.589 21.9204 143.589 21.5354C143.589 19.4707 142.942 17.8083 141.647 16.5485C140.387 15.2886 138.69 14.6587 136.555 14.6587C134.42 14.6587 132.705 15.2886 131.411 16.5485C130.116 17.8083 129.468 19.4707 129.468 21.5354V34.9214C129.468 36.9512 130.116 38.596 131.411 39.8558C132.705 41.1157 134.42 41.7456 136.555 41.7456C138.69 41.7456 140.387 41.1332 141.647 39.9083C142.942 38.6485 143.589 36.9862 143.589 34.9214C143.589 34.5364 143.799 34.344 144.219 34.344L149.049 34.5539C149.224 34.5539 149.363 34.6064 149.468 34.7114C149.608 34.8164 149.678 34.9389 149.678 35.0789C149.678 37.4586 149.136 39.5584 148.051 41.3782C146.966 43.163 145.426 44.5453 143.432 45.5252C141.437 46.5051 139.145 46.995 136.555 46.995Z" fill="#6CF9D8"/>
<path d="M182.613 46.5751C182.263 46.5751 182.018 46.4176 181.878 46.1026L174.949 30.9843C174.879 30.8444 174.774 30.7744 174.634 30.7744H168.335C168.16 30.7744 168.072 30.8619 168.072 31.0368V45.9451C168.072 46.1201 168.002 46.2776 167.862 46.4176C167.757 46.5226 167.617 46.5751 167.442 46.5751H162.613C162.438 46.5751 162.28 46.5226 162.14 46.4176C162.035 46.2776 161.983 46.1201 161.983 45.9451V10.4592C161.983 10.2842 162.035 10.1442 162.14 10.0392C162.28 9.89924 162.438 9.82925 162.613 9.82925H177.049C179.184 9.82925 181.073 10.2842 182.718 11.1941C184.363 12.069 185.64 13.3289 186.55 14.9737C187.46 16.5835 187.915 18.4383 187.915 20.538C187.915 22.9528 187.285 25.0175 186.025 26.7323C184.8 28.4121 183.086 29.5845 180.881 30.2494C180.811 30.2494 180.758 30.2844 180.723 30.3544C180.688 30.4244 180.688 30.4944 180.723 30.5644L188.125 45.8402C188.195 45.9801 188.23 46.0851 188.23 46.1551C188.23 46.4351 188.038 46.5751 187.653 46.5751H182.613ZM168.335 15.0787C168.16 15.0787 168.072 15.1661 168.072 15.3411V25.7874C168.072 25.9624 168.16 26.0499 168.335 26.0499H176.209C177.889 26.0499 179.236 25.56 180.251 24.5801C181.301 23.5652 181.826 22.2353 181.826 20.5905C181.826 18.9457 181.301 17.6159 180.251 16.601C179.236 15.5861 177.889 15.0787 176.209 15.0787H168.335Z" fill="#6CF9D8"/>
<path d="M212.392 47.1C209.767 47.1 207.44 46.5751 205.41 45.5252C203.381 44.4403 201.806 42.918 200.686 40.9582C199.601 38.9984 199.059 36.7412 199.059 34.1865V22.2178C199.059 19.6981 199.618 17.4759 200.738 15.5511C201.858 13.5913 203.416 12.0865 205.41 11.0366C207.44 9.95174 209.767 9.4093 212.392 9.4093C215.052 9.4093 217.379 9.95174 219.374 11.0366C221.403 12.0865 222.978 13.5913 224.098 15.5511C225.218 17.4759 225.778 19.6981 225.778 22.2178V34.1865C225.778 36.7412 225.218 38.9984 224.098 40.9582C222.978 42.918 221.403 44.4403 219.374 45.5252C217.379 46.5751 215.052 47.1 212.392 47.1ZM212.392 41.8506C214.597 41.8506 216.364 41.1682 217.694 39.8033C219.024 38.4385 219.689 36.6362 219.689 34.3965V22.1653C219.689 19.8906 219.024 18.0708 217.694 16.706C216.364 15.3411 214.597 14.6587 212.392 14.6587C210.222 14.6587 208.472 15.3411 207.143 16.706C205.813 18.0708 205.148 19.8906 205.148 22.1653V34.3965C205.148 36.6362 205.813 38.4385 207.143 39.8033C208.472 41.1682 210.222 41.8506 212.392 41.8506Z" fill="#6CF9D8"/>
<path d="M250.193 46.995C247.463 46.995 245.083 46.5576 243.053 45.6827C241.024 44.8078 239.449 43.5829 238.329 42.0081C237.244 40.4333 236.702 38.5785 236.702 36.4437V35.1314C236.702 34.9564 236.754 34.8164 236.859 34.7114C236.999 34.5714 237.157 34.5014 237.332 34.5014H242.004C242.179 34.5014 242.319 34.5714 242.424 34.7114C242.563 34.8164 242.633 34.9564 242.633 35.1314V36.1288C242.633 37.7386 243.351 39.0859 244.786 40.1708C246.221 41.2207 248.18 41.7456 250.665 41.7456C252.8 41.7456 254.41 41.2907 255.495 40.3808C256.579 39.4709 257.122 38.2985 257.122 36.8637C257.122 35.8838 256.824 35.0614 256.229 34.3965C255.634 33.6965 254.777 33.0666 253.657 32.5067C252.572 31.9467 250.928 31.2468 248.723 30.4069C246.238 29.497 244.226 28.6396 242.686 27.8347C241.146 27.0298 239.851 25.9449 238.801 24.5801C237.787 23.1802 237.279 21.4479 237.279 19.3832C237.279 16.3035 238.399 13.8713 240.639 12.0865C242.878 10.3017 245.871 9.4093 249.615 9.4093C252.24 9.4093 254.55 9.86425 256.544 10.7741C258.574 11.684 260.149 12.9614 261.269 14.6062C262.389 16.216 262.949 18.0883 262.949 20.2231V21.1155C262.949 21.2904 262.879 21.4479 262.739 21.5879C262.634 21.6929 262.494 21.7454 262.319 21.7454H257.594C257.419 21.7454 257.262 21.6929 257.122 21.5879C257.017 21.4479 256.964 21.2904 256.964 21.1155V20.538C256.964 18.8932 256.282 17.5109 254.917 16.391C253.587 15.2361 251.732 14.6587 249.353 14.6587C247.428 14.6587 245.923 15.0612 244.838 15.8661C243.788 16.671 243.263 17.8083 243.263 19.2782C243.263 20.3281 243.543 21.1855 244.103 21.8504C244.663 22.5153 245.503 23.1277 246.623 23.6877C247.743 24.2126 249.475 24.895 251.82 25.7349C254.305 26.6798 256.282 27.5372 257.752 28.3071C259.257 29.0771 260.534 30.1619 261.584 31.5618C262.669 32.9266 263.211 34.6414 263.211 36.7062C263.211 39.8558 262.039 42.3581 259.694 44.2128C257.384 46.0676 254.217 46.995 250.193 46.995Z" fill="#6CF9D8"/>
<path d="M286.982 46.995C284.252 46.995 281.872 46.5576 279.842 45.6827C277.813 44.8078 276.238 43.5829 275.118 42.0081C274.033 40.4333 273.491 38.5785 273.491 36.4437V35.1314C273.491 34.9564 273.543 34.8164 273.648 34.7114C273.788 34.5714 273.945 34.5014 274.12 34.5014H278.792C278.967 34.5014 279.107 34.5714 279.212 34.7114C279.352 34.8164 279.422 34.9564 279.422 35.1314V36.1288C279.422 37.7386 280.14 39.0859 281.575 40.1708C283.009 41.2207 284.969 41.7456 287.454 41.7456C289.589 41.7456 291.199 41.2907 292.283 40.3808C293.368 39.4709 293.911 38.2985 293.911 36.8637C293.911 35.8838 293.613 35.0614 293.018 34.3965C292.423 33.6965 291.566 33.0666 290.446 32.5067C289.361 31.9467 287.716 31.2468 285.512 30.4069C283.027 29.497 281.015 28.6396 279.475 27.8347C277.935 27.0298 276.64 25.9449 275.59 24.5801C274.575 23.1802 274.068 21.4479 274.068 19.3832C274.068 16.3035 275.188 13.8713 277.428 12.0865C279.667 10.3017 282.66 9.4093 286.404 9.4093C289.029 9.4093 291.339 9.86425 293.333 10.7741C295.363 11.684 296.938 12.9614 298.058 14.6062C299.178 16.216 299.738 18.0883 299.738 20.2231V21.1155C299.738 21.2904 299.668 21.4479 299.528 21.5879C299.423 21.6929 299.283 21.7454 299.108 21.7454H294.383C294.208 21.7454 294.051 21.6929 293.911 21.5879C293.806 21.4479 293.753 21.2904 293.753 21.1155V20.538C293.753 18.8932 293.071 17.5109 291.706 16.391C290.376 15.2361 288.521 14.6587 286.142 14.6587C284.217 14.6587 282.712 15.0612 281.627 15.8661C280.577 16.671 280.052 17.8083 280.052 19.2782C280.052 20.3281 280.332 21.1855 280.892 21.8504C281.452 22.5153 282.292 23.1277 283.412 23.6877C284.532 24.2126 286.264 24.895 288.609 25.7349C291.094 26.6798 293.071 27.5372 294.541 28.3071C296.045 29.0771 297.323 30.1619 298.373 31.5618C299.458 32.9266 300 34.6414 300 36.7062C300 39.8558 298.828 42.3581 296.483 44.2128C294.173 46.0676 291.006 46.995 286.982 46.995Z" fill="#6CF9D8"/>
</svg>

<svg xmlns="http://www.w3.org/2000/svg" width="300" height="57" fill="none" viewBox="0 0 300 57"><path fill="#6CF9D8" fill-rule="evenodd" d="m50.77 0 5.686 5.686-19.002 19.001a9.9 9.9 0 0 0-5.686-5.686zM24.687 19.002 5.686 0 0 5.686l19.002 19.001a9.9 9.9 0 0 1 5.685-5.686m-5.686 12.766L0 50.77l5.686 5.686 19.001-19.002a9.9 9.9 0 0 1-5.686-5.686m12.767 5.686L50.77 56.456l5.686-5.686-19.002-19.002a9.9 9.9 0 0 1-5.686 5.686" clip-rule="evenodd"/><path fill="#6CF9D8" d="M108.163 46.575q-.525 0-.682-.525l-1.733-5.617q-.105-.21-.262-.21H91.627q-.157 0-.262.21l-1.732 5.617q-.158.525-.683.525H83.7q-.315 0-.472-.157-.157-.21-.052-.578l11.391-35.486q.158-.525.683-.525h6.561q.525 0 .683.525l11.443 35.486q.053.105.053.263 0 .472-.578.472zm-15.17-11.444q-.054.315.21.315h10.656q.315 0 .21-.315l-5.407-17.585q-.053-.21-.158-.21t-.157.21zm43.562 11.864q-3.937 0-6.929-1.522-2.992-1.575-4.62-4.357-1.627-2.782-1.627-6.457V21.693q0-3.675 1.627-6.457t4.62-4.304q2.992-1.523 6.929-1.523 3.885 0 6.877 1.47t4.619 4.147 1.627 6.195q0 .261-.21.472a.56.56 0 0 1-.419.157l-4.83.263q-.63 0-.63-.578 0-3.097-1.942-4.986-1.89-1.89-5.092-1.89t-5.144 1.89q-1.943 1.89-1.943 4.986v13.386q0 3.045 1.943 4.935 1.941 1.89 5.144 1.89 3.202 0 5.092-1.838 1.942-1.89 1.942-4.987 0-.577.63-.577l4.83.21q.262 0 .419.157.21.158.21.368 0 3.57-1.627 6.3-1.628 2.676-4.619 4.146-2.992 1.47-6.877 1.47m46.058-.42q-.525 0-.735-.472l-6.929-15.119q-.105-.21-.315-.21h-6.299q-.263 0-.263.263v14.908q0 .263-.21.473a.57.57 0 0 1-.42.157h-4.829a.77.77 0 0 1-.473-.157.77.77 0 0 1-.157-.473V10.46q0-.262.157-.42.21-.21.473-.21h14.436q3.202 0 5.669 1.365a9.27 9.27 0 0 1 3.832 3.78q1.365 2.414 1.365 5.564 0 3.623-1.89 6.194-1.837 2.52-5.144 3.517-.105 0-.158.105a.22.22 0 0 0 0 .21l7.402 15.276q.105.21.105.315 0 .42-.577.42zM168.335 15.08q-.263 0-.263.262v10.446q0 .263.263.263h7.874q2.52 0 4.042-1.47 1.575-1.523 1.575-3.99 0-2.466-1.575-3.989-1.522-1.522-4.042-1.522zm44.057 32.02q-3.937 0-6.982-1.575-3.044-1.627-4.724-4.567-1.627-2.94-1.627-6.771v-11.97q0-3.779 1.679-6.666a11.4 11.4 0 0 1 4.672-4.514q3.045-1.628 6.982-1.628 3.99 0 6.982 1.628 3.044 1.575 4.724 4.514 1.68 2.887 1.68 6.667v11.969q0 3.831-1.68 6.771t-4.724 4.567q-2.992 1.575-6.982 1.575m0-5.25q3.307 0 5.302-2.047t1.995-5.406V22.165q0-3.411-1.995-5.459t-5.302-2.047q-3.255 0-5.249 2.047-1.995 2.047-1.995 5.46v12.23q0 3.36 1.995 5.407 1.994 2.048 5.249 2.048m37.801 5.144q-4.095 0-7.14-1.312t-4.724-3.675q-1.627-2.363-1.627-5.564V35.13q0-.262.157-.42.21-.21.473-.21h4.672q.263 0 .42.21a.5.5 0 0 1 .209.42v.998q0 2.415 2.153 4.042 2.152 1.575 5.879 1.575 3.203 0 4.83-1.365 1.626-1.365 1.627-3.517 0-1.47-.893-2.467-.892-1.05-2.572-1.89-1.627-.84-4.934-2.1-3.727-1.365-6.037-2.572a11.65 11.65 0 0 1-3.885-3.255q-1.522-2.1-1.522-5.197 0-4.62 3.36-7.296 3.36-2.678 8.976-2.678 3.938 0 6.929 1.365 3.045 1.365 4.725 3.832 1.68 2.415 1.68 5.617v.893q0 .261-.21.472a.57.57 0 0 1-.42.157h-4.725a.77.77 0 0 1-.472-.157.77.77 0 0 1-.158-.473v-.577q0-2.467-2.047-4.147-1.995-1.732-5.564-1.732-2.888 0-4.515 1.207-1.575 1.207-1.575 3.412 0 1.576.84 2.572.84.998 2.52 1.838 1.68.787 5.197 2.047 3.727 1.417 5.932 2.572 2.257 1.155 3.832 3.255 1.627 2.048 1.627 5.144 0 4.725-3.517 7.507-3.465 2.782-9.501 2.782m36.789.001q-4.095 0-7.14-1.312t-4.724-3.675q-1.627-2.363-1.627-5.564V35.13q0-.262.157-.42.21-.21.472-.21h4.672q.262 0 .42.21.21.157.21.42v.998q0 2.415 2.153 4.042 2.151 1.575 5.879 1.575 3.203 0 4.829-1.365 1.628-1.365 1.628-3.517 0-1.47-.893-2.467-.892-1.05-2.572-1.89-1.628-.84-4.934-2.1-3.727-1.365-6.037-2.572a11.65 11.65 0 0 1-3.885-3.255q-1.522-2.1-1.522-5.197 0-4.62 3.36-7.296 3.36-2.678 8.976-2.678 3.938 0 6.929 1.365 3.045 1.365 4.725 3.832 1.68 2.415 1.68 5.617v.893q0 .261-.21.472a.57.57 0 0 1-.42.157h-4.725a.77.77 0 0 1-.472-.157.77.77 0 0 1-.158-.473v-.577q0-2.467-2.047-4.147-1.995-1.732-5.564-1.732-2.887 0-4.515 1.207-1.575 1.207-1.575 3.412 0 1.576.84 2.572.84.998 2.52 1.838 1.68.787 5.197 2.047 3.727 1.417 5.932 2.572 2.257 1.155 3.832 3.255Q300 33.61 300 36.706q0 4.725-3.517 7.507-3.465 2.782-9.501 2.782"/></svg>
